X:57
T:Vrolijke kermis
O:vlaanderen
C:Trad.
Z:Bart Vanhaverbeke 
P:3x
L:1/8
M:2/4
K:D
z2 F>G | A>A A>A | B z E>F | G>G G>G | A z D>E | F2 F2 | GF ED | E2 A2 | A z F>G |
A>A A>A | B z E>F | G>G G>G | A z D>E | F2 F2 | GF ED | E2 A2 | D2 z2 |
d>c B>d | c>B A>c | B>A G>B | A2 z2 | G3 G | F2 E2 | F2 G2 | A2 z2 |
d>c B>d | c>B A>c | B>A G>B | A2 z2 | G3 G | F2 E2 | D2 z2 |
z2 EF | G2 E2 | E2 FG | A2 F2 | F2 ^GA | B2 ^G2 | ^G2 AB | c2 A2 | A2 z2 |
d>c B>d | c>B A>c | B>A G>B | A2 z2 | G3 G | F2 E2 | D2 z2 |]
